X:60
T:East of Edson
M:C|
L:1/8
C:© Paul Gitlitz 2001
R:Single Reel
B:Giblitz Fancy
N:Written on tour in the car, headed to Edson Alberta.
K:D
"D"fd (3ddd "Bm"ed (3ddd|fd (3ddd "A"a2ag|"D"fd (3ddd "Bm"ed(3ddd|"A7"efec "D"d2ag|!
"D"fd (3ddd "Bm"ee (3ddd|fd (3ddd "A"a2ag|"D"fd (3ddd "Bm"ed(3ddd|"A7"efec "D"d2dc|!
|"Bm"B2Bc def2|"A"A2AB cde2|"Bm"B2Bc defa|"Bm"bfae "F#m"fedc|!
"Bm"BFBc def2|"A"A2AB cdef|"Bm"bf (3gfe "F#m"fedc|"A7"dfec "D"d4|]
